X:1
T:Sing Out Your Gladsome Carols
T:Carl Harold Lowden
T:Sing Out Your Gladsome Carols
T:Public Domain
T:Public Domain
T:Public Domain
C:Carl Harold Lowden
Z:Public Domain
%%score ( 1 2 ) ( 3 4 )
L:1/8
M:4/4
K:Bb
V:1 treble 
V:2 treble 
V:3 bass 
V:4 bass 
V:1
 [DFd]2 c>B [DFA]2 [DFG]2 | (D2 D2) (D2 D2) | [B,D]2 G>G [B,D]2 [B,DG]2 | %3
w: 1.~Sing out your glad- some|ols, * Set *|e- choes ring- ing! Wel-|
w: 2.~Up from the low- ly|ger, * Tell *|won- drous sto- ry! Je-|
w: 3.~Mem- ory so sweet and|cious, * Christ *|man- ger dwell- ing! Born|
 ([A,E]2 [A,E]2) ([A,E]2 [A,E]2) | [B,D]2 F>F [DFB]2 [DFBd]2 | ([D^FA]2 [DFA]2) ([DF]2 [DF]2) | %6
w: the * joy- *|son, Wel- come it now|sing- * ing. *|
w: who * brought *|tion, Dwells in His home|glo- * ry. *|
w: a * low- *|ble, Com- ing from light|cell- * ing! *|
 [=E^G=B]2 d>d [E=GAd]2 [EGA^c]2 | ([D^FA]2 [DFA]2) ([=FAce]2 [FAce]2) | [DFd]2 c>B [DFA]2 [DFG]2 | %9
w: the midst of dark- ness,|ing * from *|day; Hail to the King|
w: His love un- ceas- ing,|to * the *|earth; O let Him see|
w: that low- est sta- tion,|forth * that *|know, How He who brought|
 (D2 D2) (D2 D2) | [B,D]2 G>G [D^F]2 [DFA]2 | (D2 D2 D2 D2) | [EGB]2 B>B [CGc]2 [^CGB]2 | %13
w: Glo- * ry, *|star He lay! * *|||
w: creas- * ing, *|His great worth! Wel- come!|come! * * *|Christ- mas sea- son! All|
w: va- * tion, *|love to show. * *|||
 ([DFB]2 [DFB]2) ([DG]2 [DG]2) | [C=EG]2 [EBd]2 [_EAc]3 [DFB] | [DFB]6 z2 || %16
w: |||
w: glad- * ness *|bless- èd rea- son.|Wel-|
w: |||
"^Refrain" (z2 [DFB]2) (z2 [DF]2) | z2 [DF]2 (z2 [DF]2) | [DF]2 [DFG]2 [DFA]2 [DFB]2 | %19
w: |||
w: ||* come! Joy- ous|
w: |||
 (z2 [EF]2) (z2 [EF]2) | z2 [EA]2 (z2 [EA]2) | z2 [EA]2 (z2 [EF]2) | [EG]2 [EFA]2 [EFA]2 [EFA]2 | %23
w: ||||
w: |||* son! Rich with|
w: ||||
 (z2 [B,D]2) (z2 [B,D]2) | z2 [DFB]2 (z2 [DF]2) | (z2 [DG]2) (z2 [DF]2) | %26
w: |||
w: |||
w: |||
 [EGc]2 [EGc]2 [FGd]2 [FG]2 | (z2 [EGc]2) (z2 [GBc]2) | [FBdf]2 [FBd]2 [DGB]2 [EGce]2 | %29
w: |||
w: |||
w: |||
 [EGc]4 [EFAc]4 | [DFB]8 |] %31
w: ||
w: ||
w: ||
V:2
 x2 [DF]2 x4 | G4 F4 | x2 [B,D]2 x4 | G4 F4 | x2 D2 x4 | d4 A4 | x2 [=E=G=B]2 x4 | d4 ^f4 | %8
w: car-|all the|come|ous sea-|with|Light in|Com-|realms of|
w: man-|out the|sus|sal- va-|in|Looks with|Down|Christ- mas|
w: pre-|in a|in|ly sta-|ex-|Seek- ing|Hence-|all might|
 x2 [DF]2 x4 | G4 F4 | x2 D2 x4 | A4 G4 | x2 [EG]2 x4 | d4 B4 | x8 | x8 || d4 c4 | B4 G4 | x8 | %19
w: of|’Neath the||||||||||
w: in-|Faith in|wel-|Joy- ous|thy|hath a|||come! *|wel- *||
w: sal-|Came God’s||||||||||
 B4 A4 | e4 d4 | c4 A4 | x8 | G4 F4 | d4 c4 | =B4 G4 | x8 | e4 =e4 | x8 | x8 | x8 |] %31
w: ||||||||||||
w: Christ- *|mas *|sea- *||bless- *|ings from|a- bove!||||||
w: ||||||||||||
V:3
 [B,,F,]2 [F,,F,]2 [B,,F,]2 [F,,F,]2 | ([B,,F,]2 [F,,F,]2) ([B,,F,]2 [F,,F,]2) | %2
 [B,,F,]2 [F,,F,]2 [B,,F,]2 [F,,F,]2 | ([C,F,]2 [F,,F,]2) ([C,F,]2 [F,,F,]2) | %4
 [B,,F,]2 [B,,B,]2 [B,,B,]2 [B,,B,]2 | ([A,,A,]2 [A,,A,]2) ([A,,A,]2 [A,,A,]2) | %6
 [=E,,=E,]2 [E,,E,]2 [A,,A,]2 [A,,A,]2 | ([D,,D,]2 [D,,D,]2) ([C,,C,]2 [F,,,F,,]2) | %8
 [B,,F,]2 [F,,F,]2 [B,,F,]2 [F,,F,]2 | ([B,,F,]2 [F,,F,]2) ([B,,F,]2 [F,,F,]2) | %10
 [B,,F,]2 [B,,B,]2 [D,A,]2 [D,C]2 | ([G,C]2 [G,C]2 [G,B,]2 [G,B,]2) | %12
 [E,,E,]2 [E,,E,]2 [=E,,=E,]2 [E,,E,]2 | ([F,,F,]2 [F,,F,]2) ([G,,G,]2 [G,,G,]2) | %14
 [C,,C,]2 [C,,C,]2 [F,,F,]2 [F,,F,]2 | [B,,B,]6 z2 || B,,2 z2 F,,2 z2 | B,,2 z2 F,,2 z2 | %18
 B,,2 z2 F,,2 z2 | C,2 z2 F,,2 z2 | C,2 z2 F,,2 z2 | A,,2 z2 F,,2 z2 | C,2 z2 F,,2 z2 | %23
 B,,2 z2 F,,2 z2 | B,,2 z2 _A,,2 z2 | G,,2 z2 =B,,2 z2 | C,2 z2 G,,2 z2 | C,4 C,4 | %28
 F,,4 G,,2 C,,2 | E,,4 F,,4 | B,,8 |] %31
V:4
 x8 | x8 | x8 | x8 | x8 | x8 | x8 | x8 | x8 | x8 | x8 | x8 | x8 | x8 | x8 | x8 || x8 | x8 | x8 | %19
 x8 | x8 | x8 | x8 | x8 | x8 | x8 | x8 | x8 | x8 | x8 | B,,8 |] %31

